X: 430
T: Biz Heybeli`de Her Gece...
C: Yesârî Âsım Arsoy
O: Turkey
F: http://compmusic.upf.edu/node/140
N: sultaniyegah--sarki--aksak--biz_heybelide--yesari_asim_arsoy
N: makam= sultaniyegah
N: form= sarki
N: usul= aksak = 9/8
M: 9/8
L: 1/16
K: C _B ^c  
Q: 1/4=222
%%MIDI tuningsystem comma53
A4 f2e2 d2c2 d6 | z2 d4 f2e2 d2c2 _7/8B2A2  | \
w:  Biz  Hey *  be li de   |  her  ge ce   | 
a4 a4 g2a2 f2e2 d2 | 
w:  meh ta ba  çı kar  | 
a18  | g4 a3f e4 f2d2 c2 | d6 f2e2 d2c2 _7/8B2A2  | \
w:  dık    |  meh tâ *  ba  çı kar  |  dık   SAZ  | 
A4 f2e2 d2c2 d6 | 
w:  Biz  Hey *  be li de   | 
z2 d4 f2e2 d2c2 _7/8B2A2  | a4 a4 g2a2 f2e2 d2 | a18  | \
w:  her  ge ce   |  meh ta ba  çı kar  |  dık    | 
g4 a3f e4 f2d2 c2 | 
w:  meh tâ *  ba  çı kar  | 
d6 f2e2 g2f6  | f4 f4 f2g2 e4 d2 | d3=cd2 f2e8d2  | \
w:  dık   SAZ  |  San dal la rı mız   |  neş *  e  do lar   | 
=c2d2 d2d2 d2e2 c2_7/8B2 A2 | 
w:  zev *  ke  ka nar  | 
A6 d2d2 =c2_7/8B2 A2G2  | _7/8B3A G2A2 F2E2 D2C2 E2 | \
w:  dık    |  zev *  ke  ka nar  | 
D6 f2e2 g2f6  | 
w:  dık   SAZ  | 
f4 f4 f2g2 e4 d2 | d3=cd2 f2e8d2  | =c2d2 d2d2 d2e2 c2_7/8B2 A2 | 
w:  San dal la rı mız   |  neş *  e  do lar   |  zev *  ke  ka nar  | 
A6 d2d2 =c2_7/8B2 A2G2  | _7/8B3A G2A2 F2E2 D2C2 E2 | \
w:  dık    |  zev *  ke  ka nar  | 
D6 a2^g2 _7/8b2a6  | 
w:  dık   SAZ  | 
^g4 a4 g2_7/8b2 a6 | _7/8b6 a2^g2 a2f4g2  | \
w:  Saz  ses le ri nin   |  sa *  hi *  le   | 
a4 _7/8b4 a2^g2 f2e2 d2 | ^g4a14  | a4 ^gfef d'4 c'2_7/8b2 a2 | 
w:  aks_ et ti *  ği   |  dem ler   |  ah  *  *  *  *  o  dem  | 
a18  | c'4 d'6d'2 d'2d'4 | e'6 d'2c'2 _7/8b8  | \
w:  ler    |  Bir  ha tı ra  bir  |  den bi re  can  | 
c'4 d'4 c'_7/8bag abc'd' (3e'd'e' | 
w:  lan dı  gö *  nül  | 
d'd' d'c'd'6 d'4 e'2d'2  | c'4 d'2e'2 d'4 e'4 d'c' | \
w:  *  *  *  *  de   Ma zi  |  *  de ki  aş kın   | 
_7/8ba4-a b2c'2 d'4 b2c'2  | 
w:  *  *  a te şi  SAZ  | 
d'4 _7/8b2c'2 d'4 b2c'2 d'2 | d'2 a4 e'2d'c' _7/8babc' d'e'c'b  | \
w:  *  a te şi  SAZ  |  *  yan dı  gö *  nül  | 
aga^g fedc d4 _7/8bbba ag | 
w:  *  *  de  *  *  *  *  *  *  of    | 
a18  | a3_7/8b a2^g2 f2e2 d2c2 d2 | a3_7/8ba2 g2f2 e2d2 c2d2  | \
w:   |  SAZ  |   | 
a3_7/8b a2g2 f2e2 d2c2 e2 | 
w:   | 
d6 e2f2 g2a6  | a6e2 f2e2 d2c2 e2 | d6 e2f2 ^g2a6  | \
w:   |  Ah  *  o  *  dem  |  ler   | 
a6e2 f2e2 d2c2 e2 | 
w:  ah  *  o  *  dem  | 
d6 f2e2 g2f6  | f4 f4 f2g2 e4 d2 | d3=cd2 f2e8d2  | \
w:  ler  SAZ  |  San dal la rı mız   |  neş *  e  do lar   | 
=c2d2 d2d2 d2e2 c2_7/8B2 A2 | 
w:  zev *  ke  ka nar  | 
A6 d2d2 =c2_7/8B2 A2G2  | _7/8B3A G2A2 F2E2 D2C2 E2 | \
w:  dık    |  zev *  ke  ka nar  | 
D6 f2e2 g2f6  | 
w:  dık   SAZ  | 
f4 f4 f2g2 e4 d2 | d3=cd2 f2e8d2  | =c2d2 d2d2 d2e2 c2_7/8B2 A2 | 
w:  San dal la rı mız   |  neş *  e  do lar   |  zev *  ke  ka nar  | 
A6 d2d2 =c2_7/8B2 A2G2  | _7/8B3A G2A2 F2E2 D2C2 E2 | D18  | |


